X:1
T: Lady Dainty
N:
C:
S:
A:
O:
R:
M:4/4
K:Em
I:speed 200
%W: A1
% voice 1 (1 lines, 45 notes)
K:Em
M:4/4
L:1/16
B2 A2 |G2 F2 E2 G2 F4 ^D4 |E8 F8 |G6 B2 A2 G2 F2 E2 |^D2 E2 F2 G2 F4 B2 A2 |G2 F2 E2 G2 F4 ^D4 |E4 G4 B4 e2 g2 |f2 e2 d2 c2 B2 A2 G2 F2 |E12 B2 A2 |
%W: A2
% voice 1 (1 lines, 43 notes)
G2 F2 E2 G2 F4 ^D4 |E8 F8 |G6 B2 A2 G2 F2 E2 |^D2 E2 F2 G2 F4 B2 A2 |G2 F2 E2 G2 F4 ^D4 |E4 G4 B4 e2 g2 |f2 e2 d2 c2 B2 A2 G2 F2 |E12 b2 a2 |
%W: B1
% voice 1 (1 lines, 48 notes)
g2 f2 e2 g2 f4 ^d4 |e8 f8 |g6 b2 a2 g2 f2 e2 |^d2 e2 f2 g2 f4 b2 a2 |g2 b2 g2 b2 f2 a2 f2 a2 |e2 g2 f2 e2 ^d2 ^c2 B2 d2 |e2 f2 g2 a2 b4 a2 g2 |f8 e4 b2 a2 |
%W: B2
% voice 1 (1 lines, 46 notes)
g2 f2 e2 g2 f4 ^d4 |e8 f8 |g6 b2 a2 g2 f2 e2 |^d2 e2 f2 g2 f4 b2 a2 |g2 b2 g2 b2 f2 a2 f2 a2 |e2 g2 f2 e2 ^d2 ^c2 B2 d2 |e2 f2 g2 a2 b4 a2 g2 |f8 e4 ||
